packages/svg/shopping-trolley.svg

<svg width="1024" height="1024" fill="none" xmlns="http://www.w3.org/2000/svg"><path d="M96 128h823.007c10.005 0 18.176 4.171 24.512 12.512 6.336 8.341 8.501 17.504 6.496 27.488l-112 448c-2.005 7.339-5.835 13.173-11.488 17.504-5.653 4.331-12.149 6.496-19.488 6.496H256.031v64h608c9.344 0 17.013 2.997 23.008 8.992 5.995 5.995 8.992 13.664 8.992 23.008s-2.997 17.013-8.992 23.008c-5.995 5.995-13.664 8.992-23.008 8.992h-672V192h-96c-9.344 0-17.013-2.997-23.008-8.992-5.995-5.995-8.992-13.664-8.992-23.008s2.997-17.013 8.992-23.008C79.018 130.997 86.687 128 96.031 128H96Zm159.999 64v384h526.016l96-384H255.999Zm112 736c-13.333-.661-24.501-5.493-33.504-14.496-9.003-9.003-13.504-20.171-13.504-33.504 0-13.333 4.501-24.501 13.504-33.504 9.003-9.003 20.171-13.504 33.504-13.504 13.333 0 24.501 4.501 33.504 13.504 9.003 9.003 13.504 20.171 13.504 33.504 0 13.333-4.501 24.501-13.504 33.504-9.003 9.003-20.171 13.835-33.504 14.496Zm320 0c-13.333-.661-24.501-5.493-33.504-14.496-9.003-9.003-13.504-20.171-13.504-33.504 0-13.333 4.501-24.501 13.504-33.504 9.003-9.003 20.171-13.504 33.504-13.504 13.333 0 24.502 4.501 33.504 13.504 9.003 9.003 13.504 20.171 13.504 33.504 0 13.333-4.501 24.501-13.504 33.504-9.002 9.003-20.171 13.835-33.504 14.496Z" fill="#303133"/></svg>

<svg width="1024" height="1024" viewBox="0 0 1024 1024" fill="none" xmlns="http://www.w3.org/2000/svg">
<path d="M95.9991 128H919.007C929.012 128 937.183 132.171 943.519 140.512C949.855 148.853 952.02 158.016 950.015 168L838.015 616C836.01 623.339 832.18 629.173 826.527 633.504C820.874 637.835 814.378 640 807.039 640H256.031V704H864.031C873.375 704 881.044 706.997 887.039 712.992C893.034 718.987 896.031 726.656 896.031 736C896.031 745.344 893.034 753.013 887.039 759.008C881.044 765.003 873.375 768 864.031 768H192.031V192H96.0311C86.6871 192 79.0178 189.003 73.0231 183.008C67.0285 177.013 64.0311 169.344 64.0311 160C64.0311 150.656 67.0285 142.987 73.0231 136.992C79.0178 130.997 86.6871 128 96.0311 128H95.9991ZM255.999 192V576H782.015L878.015 192H255.999ZM367.999 928C354.666 927.339 343.498 922.507 334.495 913.504C325.492 904.501 320.991 893.333 320.991 880C320.991 866.667 325.492 855.499 334.495 846.496C343.498 837.493 354.666 832.992 367.999 832.992C381.332 832.992 392.5 837.493 401.503 846.496C410.506 855.499 415.007 866.667 415.007 880C415.007 893.333 410.506 904.501 401.503 913.504C392.5 922.507 381.332 927.339 367.999 928ZM687.999 928C674.666 927.339 663.498 922.507 654.495 913.504C645.492 904.501 640.991 893.333 640.991 880C640.991 866.667 645.492 855.499 654.495 846.496C663.498 837.493 674.666 832.992 687.999 832.992C701.332 832.992 712.501 837.493 721.503 846.496C730.506 855.499 735.007 866.667 735.007 880C735.007 893.333 730.506 904.501 721.503 913.504C712.501 922.507 701.332 927.339 687.999 928Z" fill="#303133"/>
</svg>
